X:0942
T:Tarry Woo.
M:C
L:1/8
Q:1/2=100
I: || ||
Z:Jack Campin * www.campin.me.uk * 2009
K:G
G3 A B2AG|EDEG A4|G3 A B2AB|cB`AG Bcd2|G3 A B2AG|EDEG A4 |G3  A B2 AB|cBAG Bcd2||
e2ge d2ed|B2gB A4|e2ge d3 e|g>aba g4  |e2ge d2ed|cBgB A3B|G>ABc d>edc|B2AG Bcd2|]
<end>
<start>
